packages/ffe-icons/icons/open/300/lg/bottom_sheets.svg

<svg xmlns="http://www.w3.org/2000/svg" height="40" viewBox="0 -960 960 960" width="40"><path d="M202.565-140.001q-25.788 0-44.176-18.388t-18.388-44.176v-554.87q0-25.788 18.388-44.176t44.176-18.388h554.87q25.788 0 44.176 18.388t18.388 44.176v554.87q0 25.788-18.388 44.176t-44.176 18.388h-554.87Zm-12.309-317.947h579.488v-299.487q0-4.616-3.847-8.462-3.846-3.847-8.462-3.847h-554.87q-4.616 0-8.462 3.847-3.847 3.846-3.847 8.462v299.487Zm0 50.255v205.128q0 4.616 3.847 8.462 3.846 3.847 8.462 3.847h554.87q4.616 0 8.462-3.847 3.847-3.846 3.847-8.462v-205.128H190.256Zm0 0V-190.256-407.693Z"/></svg>

<svg xmlns="http://www.w3.org/2000/svg" viewBox="0 -960 960 960" width="32" height="32"><path d="M202.57-140q-25.79 0-44.18-18.39T140-202.57v-554.86q0-25.79 18.39-44.18T202.57-820h554.86q25.79 0 44.18 18.39T820-757.43v554.86q0 25.79-18.39 44.18T757.43-140H202.57Zm-12.31-317.95h579.48v-299.48q0-4.62-3.84-8.47-3.85-3.84-8.47-3.84H202.57q-4.62 0-8.47 3.84-3.84 3.85-3.84 8.47v299.48Zm0 50.26v205.12q0 4.62 3.84 8.47 3.85 3.84 8.47 3.84h554.86q4.62 0 8.47-3.84 3.84-3.85 3.84-8.47v-205.12H190.26Zm0 0v217.43-217.43Z"/></svg>
